alura/assets/api/imersoes/imersao-css-html-1.svg

<svg width="50" height="50" viewBox="0 0 50 50" fill="none" xmlns="http://www.w3.org/2000/svg">
<g clip-path="url(#clip0_0_3)">
<path fill-rule="evenodd" clip-rule="evenodd" d="M2.12515 18.4908C5.15455 8.90025 14.1495 1.9 24.7 1.9C29.4407 1.9 33.7134 3.30407 37.337 5.6594L37.5 5.6C43.9 9.8 48.1 17 48.1 25.2C48.1 28.3 47.5 31.2 46.3 33.9L13.4 45.9C6.1 41.9 1.1 34.1 1.1 25.2C1.1 22.9 1.5 20.6 2.1 18.5L2.12515 18.4908Z" fill="#7ee5ff"/>
<path d="M25 49.3C11.6 49.3 0.700001 38.4 0.700001 25C0.700001 11.6 11.6 0.700001 25 0.700001C38.4 0.700001 49.3 11.6 49.3 25C49.3 28.7 48.5 32.2 46.9 35.6C46.6 36.2 45.8 36.5 45.2 36.2C44.6 35.9 44.3 35.2 44.6 34.5C46 31.5 46.8 28.3 46.8 25C46.8 13 37 3.2 25 3.2C13 3.2 3.2 13 3.2 25C3.2 37 13 46.8 25 46.8C28.7 46.8 32.3 45.9 35.5 44.1C36.1 43.8 36.9 44 37.2 44.6C37.5 45.2 37.3 46 36.7 46.3C33.1 48.3 29.1 49.3 25 49.3Z" fill="black"/>
<path d="M25 44.8C14.1 44.8 5.2 35.9 5.2 25C5.2 14.1 14.1 5.2 25 5.2C35.9 5.2 44.8 14.1 44.8 25C44.8 35.9 35.9 44.8 25 44.8ZM25 6.2C14.7 6.2 6.2 14.7 6.2 25C6.2 35.3 14.6 43.8 25 43.8C35.4 43.8 43.8 35.3 43.8 25C43.8 14.7 35.3 6.2 25 6.2Z" fill="black"/>
<path d="M24.5 12C27.0689 12 28.9587 12.5313 30.1988 13.5938C31.3799 14.6875 32 16.0313 32 17.625V19.8125V30V31.3438C32 31.9063 31.8819 32.5 31.7047 33.1875C31.498 33.875 31.1437 34.4687 30.6122 35.0312C30.0512 35.5937 29.2835 36.0625 28.3091 36.4375C27.3346 36.8125 26.065 37 24.5295 37C22.9646 37 21.7244 36.7812 20.75 36.4375C19.7756 36.0937 19.0079 35.5937 18.4469 35.0312C17.8858 34.4687 17.502 33.875 17.3543 33.1875C17.1476 32.5 17.0591 31.9063 17.0591 31.3438V29.1563C17.0591 28 17.3543 26.9062 17.9154 25.9375C18.5059 24.9687 19.3031 24.2813 20.3366 23.9063C20.8681 23.6875 21.4291 23.5313 22.1378 23.25C22.7874 23 23.4665 22.7813 24.0866 22.5313C24.7362 22.3125 25.2382 22.0937 25.7402 21.9062C26.2126 21.6875 26.5079 21.625 26.626 21.5625C26.7441 21.5 26.8917 21.4063 27.0689 21.3125C27.2756 21.1875 27.4232 21.0313 27.6299 20.8438C27.8366 20.625 27.9547 20.375 28.0728 20.125C28.2205 19.8438 28.2795 19.5 28.2795 19.125V18.25C28.2795 17.9375 28.2205 17.625 28.0728 17.2812C27.9547 16.9375 27.748 16.6563 27.4528 16.375C27.1575 16.0938 26.7736 15.875 26.3012 15.6875C25.8287 15.5 25.2382 15.4375 24.4705 15.4375C22.9941 15.4375 22.0492 15.75 21.4882 16.4063C21.0453 16.9688 20.7795 17.625 20.7205 18.4375C20.7205 18.625 20.5728 18.7188 20.4252 18.7188H17.2953C17.1181 18.7188 17 18.5625 17 18.4063V17.5937C17 16.8125 17.1476 16.0625 17.4134 15.4062C17.6791 14.7187 18.122 14.125 18.7717 13.5938C19.3917 13.0938 20.1594 12.6562 21.1043 12.4062C22.0492 12.1875 23.1713 12 24.5 12ZM28.2795 24.3125C28.2205 24.625 28.0728 24.8438 27.8366 25C27.6004 25.1875 27.3937 25.25 27.187 25.3437C26.7441 25.5312 26.2421 25.6875 25.7402 25.875C25.2382 26.0938 24.7362 26.25 24.2933 26.4062C23.7618 26.625 23.2303 26.7813 22.8169 26.9688C22.4626 27.1563 22.1378 27.3437 21.7835 27.625C21.5177 27.875 21.2815 28.1875 21.0748 28.5938C20.8681 29 20.75 29.4687 20.75 30.0625C20.75 31.2187 21.0157 32.0938 21.5472 32.6875C22.0787 33.25 23.0531 33.5625 24.5 33.5625C25.9764 33.5625 26.9508 33.25 27.5118 32.6563C28.0433 32.0313 28.3091 31.1875 28.3091 30.0937L28.2795 24.3125Z" fill="black"/>
</g>
<defs>
<clipPath id="clip0_0_3">
<rect width="50" height="50" fill="white"/>
</clipPath>
</defs>
</svg>

<svg xmlns="http://www.w3.org/2000/svg" fill="none" viewBox="0 0 50 50"><g clip-path="url(#clip0_0_3)"><path fill="#7ee5ff" fill-rule="evenodd" d="M2.125 18.49C5.155 8.9 14.15 1.9 24.7 1.9c4.74 0 9.013 1.404 12.637 3.76l.163-.06C43.9 9.8 48.1 17 48.1 25.2c0 3.1-.6 6-1.8 8.7l-32.9 12c-7.3-4-12.3-11.8-12.3-20.7 0-2.3.4-4.6 1-6.7l.025-.01z" clip-rule="evenodd"/><path fill="#000" d="M25 49.3C11.6 49.3.7 38.4.7 25S11.6.7 25 .7 49.3 11.6 49.3 25c0 3.7-.8 7.2-2.4 10.6-.3.6-1.1.9-1.7.6-.6-.3-.9-1-.6-1.7 1.4-3 2.2-6.2 2.2-9.5C46.8 13 37 3.2 25 3.2S3.2 13 3.2 25 13 46.8 25 46.8c3.7 0 7.3-.9 10.5-2.7.6-.3 1.4-.1 1.7.5.3.6.1 1.4-.5 1.7-3.6 2-7.6 3-11.7 3z"/><path fill="#000" d="M25 44.8C14.1 44.8 5.2 35.9 5.2 25S14.1 5.2 25 5.2 44.8 14.1 44.8 25 35.9 44.8 25 44.8zm0-38.6C14.7 6.2 6.2 14.7 6.2 25S14.6 43.8 25 43.8 43.8 35.3 43.8 25 35.3 6.2 25 6.2z"/><path fill="#000" d="M24.5 12c2.569 0 4.459.531 5.699 1.594C31.379 14.688 32 16.03 32 17.625v13.719c0 .562-.118 1.156-.295 1.843-.207.688-.561 1.282-1.093 1.844-.56.563-1.328 1.032-2.303 1.407-.974.374-2.244.562-3.78.562-1.564 0-2.805-.219-3.779-.563-.974-.343-1.742-.843-2.303-1.406-.561-.562-.945-1.156-1.093-1.843-.206-.688-.295-1.282-.295-1.844v-2.188c0-1.156.295-2.25.856-3.218.59-.97 1.388-1.657 2.422-2.032.531-.218 1.092-.375 1.8-.656.65-.25 1.33-.469 1.95-.719.65-.218 1.151-.437 1.653-.625.473-.218.768-.281.886-.343.118-.063.266-.157.443-.25.207-.125.354-.282.56-.47.208-.218.326-.468.444-.718.148-.281.206-.625.206-1v-.875c0-.313-.058-.625-.206-.969-.118-.343-.325-.625-.62-.906-.296-.281-.68-.5-1.152-.688-.472-.187-1.063-.25-1.83-.25-1.477 0-2.422.313-2.983.97-.443.562-.709 1.218-.767 2.03 0 .188-.148.282-.296.282h-3.13c-.177 0-.295-.157-.295-.313v-.812c0-.782.148-1.532.413-2.188.266-.687.709-1.281 1.359-1.812a6.22 6.22 0 012.332-1.188A14.798 14.798 0 0124.5 12zm3.78 12.313a.997.997 0 01-.443.687c-.237.188-.443.25-.65.344-.443.187-.945.343-1.447.531-.502.219-1.004.375-1.447.531-.531.219-1.063.375-1.476.563-.354.187-.68.375-1.034.656-.265.25-.502.563-.708.969-.207.406-.325.875-.325 1.468 0 1.157.266 2.032.797 2.625.532.563 1.506.876 2.953.876 1.476 0 2.45-.313 3.012-.907.531-.625.797-1.468.797-2.562l-.03-5.782z"/></g><defs><clipPath id="clip0_0_3"><path fill="#fff" d="M0 0h50v50H0z"/></clipPath></defs></svg>
